X: 277
T: The Coachman's Whip
C: Vincent Broderick
R: reel
M: C|
L: 1/8
K: Gmaj
|: d2BG dGBG|E2BE dEBE|d2BG dGBG|FGAc BGGB|
d2BG dGBG|E2BE dEBE|FGAB cdef|gedc BGGB:| 
|: D3E ~G3B|d2BG dGBG|E2BE dEBE|dBAG FAGE|
DEDE ~G3B|d2BG dGBG|FGAB cdef|gedc BGGB:|

